azure-docs/cloud-shell.svg

<svg xmlns="http://www.w3.org/2000/svg" id="cloud-shell" viewBox="0 0 113 80">
  <g fill="none">
    <path fill="#A0A1A2" d="M0,65.9057144 C0,67.5342858 1.148,69 3.116,69 L78.884,69 C80.524,69 82,67.8600001 82,65.9057144 L82,12 L0,12 L0,65.9057144 Z"/>
    <path fill="#7A7A7A" d="M78.884,0 L3.116,0 C1.148,0 0,1.42105263 0,2.99999999 L0,12 L82,12 L82,2.99999999 C82,1.42105263 80.852,0 78.884,0"/>
    <rect width="72" height="47" x="5" y="17" fill="#0072C6"/>
    <path fill="#FFF" d="M3.13761468,0 C1.65137615,0 0,1.47887325 0,3.12206574 L0,15.2816901 L0,20.7042253 L0,66.8779343 C0,68.5211268 1.65137615,70 3.13761468,70 L6.60550459,70 L72,0 L3.13761468,0 Z" opacity=".2"/>
    <polygon fill="#FFF" points="23 28.375 10 23 10 25.591 20.054 29.476 20.054 29.527 10 33.411 10 36 23 30.625"/>
    <path fill="#CAE3F3" d="M101.817863,57.8296215 L101.479952,57.8296215 C101.479952,45.8910274 91.6524658,36 79.7935044,36 C68.6113672,36 59.4627105,44.5269911 58.1070568,55.4412978 C55.3967522,51.6899459 50.9918806,49.6433874 46.2480955,49.6433874 C37.7762629,49.6433874 31,56.464577 31,64.6518193 C31,73.1788104 37.7762629,80 46.2480955,80 L101.817863,80 C107.917301,80 113,75.2253689 113,68.7439281 C113,62.6042526 107.917301,57.8296215 101.817863,57.8296215"/>
    <rect width="12" height="2" x="26" y="33" fill="#FFF"/>
  </g>
</svg>

<svg xmlns="http://www.w3.org/2000/svg" viewBox="0 0 113 80"><g fill="none"><path fill="#A0A1A2" d="M0 65.906C0 67.534 1.148 69 3.116 69h75.768C80.524 69 82 67.86 82 65.906V12H0v53.906z"/><path fill="#7A7A7A" d="M78.884 0H3.116C1.148 0 0 1.421 0 3v9h82V3c0-1.579-1.148-3-3.116-3"/><path fill="#0072C6" d="M5 17h72v47H5z"/><path fill="#FFF" d="M3.138 0C1.65 0 0 1.479 0 3.122v63.756C0 68.52 1.651 70 3.138 70h3.468L72 0H3.138z" opacity=".2"/><path fill="#FFF" d="M23 28.375L10 23v2.591l10.054 3.885v.051L10 33.411V36l13-5.375z"/><path fill="#CAE3F3" d="M101.818 57.83h-.338C101.48 45.89 91.652 36 79.794 36c-11.183 0-20.331 8.527-21.687 19.441-2.71-3.751-7.115-5.798-11.859-5.798C37.776 49.643 31 56.465 31 64.652 31 73.179 37.776 80 46.248 80h55.57c6.1 0 11.182-4.775 11.182-11.256 0-6.14-5.083-10.914-11.182-10.914"/><path fill="#FFF" d="M26 33h12v2H26z"/></g></svg>
